webapp/src/assets/icons/cloudproviders/aws/architecture_services/athena.svg

<?xml version="1.0" encoding="UTF-8"?>
<svg width="24px" height="24px" viewBox="0 0 24 24" version="1.1" xmlns="http://www.w3.org/2000/svg" xmlns:xlink="http://www.w3.org/1999/xlink">
    <title>Icon-Architecture/16/Arch_Amazon-Athena_16</title>
    <g id="Icon-Architecture/16/Arch_Amazon-Athena_16" stroke="none" stroke-width="1" fill="none" fill-rule="evenodd">
        <path d="M4.9080749,10.4244015 L6.72320895,10.4244015 L6.72320895,9.42433902 L4.9080749,9.42433902 L4.9080749,10.4244015 Z M4.9080749,13.9986249 L6.72320895,13.9986249 L6.72320895,12.9985624 L4.9080749,12.9985624 L4.9080749,13.9986249 Z M4,12.2115132 L6.72320895,12.2115132 L6.72320895,11.2114507 L4,11.2114507 L4,12.2115132 Z M18.8176696,18.8359272 C18.6043634,19.0459404 18.2447901,19.0569411 18.0121848,18.8289268 L15.1254411,16.1387587 C15.4454004,15.8867429 15.7389503,15.6067254 16.0081224,15.3037065 L18.8207168,18.0528783 C18.9263542,18.1568848 18.9842516,18.2958935 18.9842516,18.4429027 C18.9842516,18.591912 18.9253384,18.7309207 18.8176696,18.8359272 L18.8176696,18.8359272 Z M19.5378319,17.343834 L16.6267104,14.4986562 C17.3224948,13.4355897 17.7318395,12.1735108 17.7318395,10.8174261 C17.7318395,7.05819114 14.6246795,4 10.8064988,4 C8.32909979,4 6.02336152,5.31708232 4.79126437,7.43721483 L5.67191419,7.93424589 C6.72524044,6.12413276 8.69172031,5.0000625 10.8064988,5.0000625 C14.0650047,5.0000625 16.7160958,7.60922558 16.7160958,10.8174261 C16.7160958,14.0256266 14.0650047,16.6357897 10.8064988,16.6357897 C9.02894723,16.6357897 7.3631275,15.8597412 6.23463621,14.5046565 L5.44946631,15.1386962 C6.77196465,16.7257954 8.72320836,17.6358522 10.8064988,17.6358522 C12.0670367,17.6358522 13.247331,17.2968311 14.2651062,16.7157947 L17.3042114,19.5469717 C17.6028401,19.8389899 17.9969487,20 18.4164508,20 C18.8390002,20 19.236156,19.8379899 19.5347847,19.5449716 C19.8344291,19.2519532 19.9989796,18.8609288 20,18.4449028 C20.001011,18.0298769 19.8374763,17.6388524 19.5378319,17.343834 L19.5378319,17.343834 Z M12.8420492,13.8216139 C12.8105611,13.8416151 12.755711,13.8706169 12.6663255,13.9056191 C12.5464678,13.952622 12.4042637,13.9936246 12.2447919,14.0296269 C11.8131008,14.128633 11.2788196,14.1826364 10.7404754,14.1826364 C9.6648028,14.1826364 8.86845972,13.968623 8.64398035,13.8276142 L8.04773878,9.47534221 C8.81868827,9.7503594 9.80599118,9.85636602 10.5586573,9.8703669 C10.2620601,9.9503719 10.0385965,10.207388 10.0385965,10.5254078 C10.0385965,10.9064317 10.3534771,11.216451 10.7404754,11.216451 C10.8115775,11.216451 10.8765851,11.1954497 10.9415927,11.1764485 C11.8374787,11.6044753 12.5393576,11.9004938 13.0787175,12.0895056 L12.8420492,13.8216139 Z M10.8704906,10.2693918 L10.6104602,10.7804238 C10.5078701,10.7304207 10.4266106,10.6454153 10.4266106,10.5254078 C10.4266106,10.3553972 10.567799,10.2163885 10.7404754,10.2163885 C10.7912626,10.2163885 10.8278294,10.2483905 10.8704906,10.2693918 L10.8704906,10.2693918 Z M13.2178744,11.0604413 C12.6663255,10.8514282 12.0192968,10.5744109 11.3915672,10.2793925 C11.3123391,10.0763798 11.1366155,9.92837052 10.9212778,9.8703669 C11.6749597,9.85636602 12.6632783,9.74835927 13.4352435,9.46334146 L13.2178744,11.0604413 Z M10.7404754,7.68023001 C12.2031464,7.68023001 13.2574884,8.09325583 13.5347864,8.33227077 C13.2442837,8.55128446 12.1990834,8.87530471 10.7404754,8.87530471 C9.25952105,8.87530471 8.2061948,8.54128383 7.94514866,8.33427089 C8.21838373,8.09525595 9.27272572,7.68023001 10.7404754,7.68023001 L10.7404754,7.68023001 Z M14.5962386,8.39927495 C14.5992859,8.3792737 14.6003016,8.35927245 14.6003016,8.34027127 C14.6003016,7.1951997 12.343319,6.68016751 10.7404754,6.68016751 C9.13864755,6.68016751 6.88166497,7.1951997 6.88572247,8.39927495 C6.88775944,8.41827614 6.89893262,8.51228202 6.90401134,8.53128321 C6.90401134,8.53228327 6.90502708,8.53228327 6.90502708,8.53328333 L6.89588539,8.53428339 L7.64245703,13.9626227 C7.64245703,15.1486968 10.4225476,15.1826989 10.7404754,15.1826989 C11.3529689,15.1826989 11.9695253,15.119695 12.47435,15.0046878 C12.6866404,14.9556847 12.8776002,14.8986812 13.0401192,14.8356772 C13.5703375,14.6286643 13.8395096,14.3346459 13.8344308,14.0296269 L14.0619574,12.3625227 C14.2112718,12.3885243 14.3433184,12.4035252 14.44794,12.4035252 C14.8613477,12.4035252 14.9761268,12.2315145 15.0644965,12.0985062 L15.1386458,11.6384774 C15.0563705,11.3034565 14.6063961,10.8934308 14.29761,10.6454153 L14.5860812,8.53428339 L14.5586561,8.53028314 C14.5647506,8.51028189 14.5820182,8.49428089 14.5870969,8.47327958 L14.5962386,8.39927495 Z" id="Amazon-Athena_Icon_16_Squid" fill="#8C4FFF"></path>
    </g>
</svg>

<svg width="24" height="24" xmlns="http://www.w3.org/2000/svg"><path d="M4.908 10.424h1.815v-1H4.908v1Zm0 3.575h1.815v-1H4.908v1ZM4 12.212h2.723v-1H4v1Zm14.818 6.624a.576.576 0 0 1-.806-.007l-2.887-2.69c.32-.252.614-.532.883-.835l2.813 2.749a.544.544 0 0 1-.003.783Zm.72-1.492-2.911-2.845a6.7 6.7 0 0 0 1.105-3.682C17.732 7.058 14.625 4 10.806 4 8.33 4 6.023 5.317 4.791 7.437l.88.497A5.95 5.95 0 0 1 10.807 5c3.259 0 5.91 2.61 5.91 5.817 0 3.209-2.651 5.819-5.91 5.819a5.927 5.927 0 0 1-4.571-2.131l-.786.634a6.946 6.946 0 0 0 5.357 2.497c1.261 0 2.441-.34 3.46-.92l3.038 2.831a1.58 1.58 0 0 0 1.112.453c.423 0 .82-.162 1.119-.455.3-.293.464-.684.465-1.1a1.53 1.53 0 0 0-.462-1.101Zm-6.696-3.522c-.031.02-.086.049-.176.084a2.97 2.97 0 0 1-.421.124 6.978 6.978 0 0 1-1.505.153c-1.075 0-1.872-.214-2.096-.355l-.596-4.353c.77.275 1.758.381 2.51.395a.684.684 0 0 0-.52.655c0 .381.315.691.702.691.072 0 .137-.02.202-.04.895.428 1.597.724 2.137.914l-.237 1.732Zm-1.972-3.553-.26.511c-.102-.05-.183-.135-.183-.255 0-.17.14-.309.313-.309.051 0 .088.032.13.053Zm2.348.791a26.741 26.741 0 0 1-1.826-.78.689.689 0 0 0-.47-.41c.753-.014 1.741-.122 2.513-.407l-.217 1.597ZM10.74 7.68c1.463 0 2.517.413 2.795.652-.29.22-1.336.543-2.795.543-1.48 0-2.534-.334-2.795-.54.273-.24 1.328-.655 2.795-.655Zm3.856.72a.393.393 0 0 0 .004-.06c0-1.145-2.257-1.66-3.86-1.66-1.601 0-3.858.515-3.854 1.72.002.018.013.112.018.131l.001.002-.01.001.747 5.429c0 1.186 2.78 1.22 3.098 1.22.613 0 1.23-.063 1.734-.178.213-.05.404-.106.566-.17.53-.206.8-.5.794-.805l.228-1.667c.15.026.281.04.386.04.413 0 .528-.171.616-.304l.075-.46c-.083-.336-.533-.746-.841-.994l.288-2.11-.027-.005c.006-.02.023-.036.028-.057l.01-.074Z" fill="#8C4FFF" fill-rule="evenodd"/></svg>
